material/.icons/material/book-lock.svg

<svg xmlns="http://www.w3.org/2000/svg" viewBox="0 0 24 24"><path d="M18 2h-6v7L9.5 7.5 7 9V2H6a2 2 0 00-2 2v16a2 2 0 002 2h12a2 2 0 002-2V4a2 2 0 00-2-2m0 18h-8v-4h1v-1a3 3 0 013-3 3 3 0 013 3v1h1v4m-3-5v1h-2v-1a1 1 0 011-1 1 1 0 011 1z"/></svg>

<?xml version="1.0" encoding="UTF-8"?><!DOCTYPE svg PUBLIC "-//W3C//DTD SVG 1.1//EN" "http://www.w3.org/Graphics/SVG/1.1/DTD/svg11.dtd"><svg xmlns="http://www.w3.org/2000/svg" xmlns:xlink="http://www.w3.org/1999/xlink" version="1.1" id="mdi-book-lock" width="24" height="24" viewBox="0 0 24 24"><path d="M18,2H12V9L9.5,7.5L7,9V2H6A2,2 0 0,0 4,4V20A2,2 0 0,0 6,22H18A2,2 0 0,0 20,20V4A2,2 0 0,0 18,2M18,20H10V16H11V15A3,3 0 0,1 14,12A3,3 0 0,1 17,15V16H18V20M15,15V16H13V15A1,1 0 0,1 14,14A1,1 0 0,1 15,15Z" /></svg>
